report_00007_2020-12-11T15:55:29.892Z/first-contentful-paint/comparison/line/11_vs_12.svg

<svg width="640" height="500" xmlns="http://www.w3.org/2000/svg" xmlns:xlink="http://www.w3.org/1999/xlink"><path fill="#fff" d="M0 0h640v500H0z"/><defs><path id="d" stroke-width=".222" stroke="currentColor" d="M-1-1h2v2h-2z"/><path id="b" stroke-width=".222" stroke="currentColor" d="M0-1.33l-1.33 2h2.66z"/><path id="f" stroke-width=".222" stroke="currentColor" d="M0 1.33L1.265.411.782-1.067l-1.564-.009-.483 1.487z"/><use xlink:href="#b" id="c" stroke="currentColor" transform="rotate(180)"/><use xlink:href="#d" id="e" stroke="currentColor" transform="rotate(45)"/><circle id="a" stroke-width=".222" stroke="currentColor" cx="0" cy="0" r="1"/></defs><g fill="none" color="#000" stroke="currentColor"><path stroke="#000" d="M62.2 389.5h9m543.8 0h-9"/><text transform="translate(53.9 393.4)" stroke="none" fill="#000" font-family="Arial" font-size="12" text-anchor="end"><tspan>1500</tspan></text></g><g fill="none" color="#000" stroke="currentColor"><path stroke="#000" d="M62.2 331.1h9m543.8 0h-9"/><text transform="translate(53.9 335)" stroke="none" fill="#000" font-family="Arial" font-size="12" text-anchor="end"><tspan>1600</tspan></text></g><g fill="none" color="#000" stroke="currentColor"><path stroke="#000" d="M62.2 272.6h9m543.8 0h-9"/><text transform="translate(53.9 276.5)" stroke="none" fill="#000" font-family="Arial" font-size="12" text-anchor="end"><tspan>1700</tspan></text></g><g fill="none" color="#000" stroke="currentColor"><path stroke="#000" d="M62.2 214.2h9m543.8 0h-9"/><text transform="translate(53.9 218.1)" stroke="none" fill="#000" font-family="Arial" font-size="12" text-anchor="end"><tspan>1800</tspan></text></g><g fill="none" color="#000" stroke="currentColor"><path stroke="#000" d="M62.2 155.8h9m543.8 0h-9"/><text transform="translate(53.9 159.7)" stroke="none" fill="#000" font-family="Arial" font-size="12" text-anchor="end"><tspan>1900</tspan></text></g><g fill="none" color="#000" stroke="currentColor"><path stroke="#000" d="M62.2 97.4h9m543.8 0h-9"/><text transform="translate(53.9 101.3)" stroke="none" fill="#000" font-family="Arial" font-size="12" text-anchor="end"><tspan>2000</tspan></text></g><g fill="none" color="#000" stroke="currentColor"><path stroke="#000" d="M62.2 39h9M615 39h-9"/><text transform="translate(53.9 42.9)" stroke="none" fill="#000" font-family="Arial" font-size="12" text-anchor="end"><tspan>2100</tspan></text></g><g fill="none" color="#000" stroke="currentColor"><path stroke="#000" d="M62.2 392v-9m0-364.9v9"/><text transform="translate(62.2 413.9)" stroke="none" fill="#000" font-family="Arial" font-size="12" text-anchor="middle"><tspan>0</tspan></text></g><g fill="none" color="#000" stroke="currentColor"><path stroke="#000" d="M118 392v-9m0-364.9v9"/><text transform="translate(118 413.9)" stroke="none" fill="#000" font-family="Arial" font-size="12" text-anchor="middle"><tspan>10</tspan></text></g><g fill="none" color="#000" stroke="currentColor"><path stroke="#000" d="M173.9 392v-9m0-364.9v9"/><text transform="translate(173.9 413.9)" stroke="none" fill="#000" font-family="Arial" font-size="12" text-anchor="middle"><tspan>20</tspan></text></g><g fill="none" color="#000" stroke="currentColor"><path stroke="#000" d="M229.7 392v-9m0-364.9v9"/><text transform="translate(229.7 413.9)" stroke="none" fill="#000" font-family="Arial" font-size="12" text-anchor="middle"><tspan>30</tspan></text></g><g fill="none" color="#000" stroke="currentColor"><path stroke="#000" d="M285.6 392v-9m0-364.9v9"/><text transform="translate(285.6 413.9)" stroke="none" fill="#000" font-family="Arial" font-size="12" text-anchor="middle"><tspan>40</tspan></text></g><g fill="none" color="#000" stroke="currentColor"><path stroke="#000" d="M341.4 392v-9m0-364.9v9"/><text transform="translate(341.4 413.9)" stroke="none" fill="#000" font-family="Arial" font-size="12" text-anchor="middle"><tspan>50</tspan></text></g><g fill="none" color="#000" stroke="currentColor"><path stroke="#000" d="M397.2 392v-9m0-364.9v9"/><text transform="translate(397.2 413.9)" stroke="none" fill="#000" font-family="Arial" font-size="12" text-anchor="middle"><tspan>60</tspan></text></g><g fill="none" color="#000" stroke="currentColor"><path stroke="#000" d="M453.1 392v-9m0-364.9v9"/><text transform="translate(453.1 413.9)" stroke="none" fill="#000" font-family="Arial" font-size="12" text-anchor="middle"><tspan>70</tspan></text></g><g fill="none" color="#000" stroke="currentColor"><path stroke="#000" d="M508.9 392v-9m0-364.9v9"/><text transform="translate(508.9 413.9)" stroke="none" fill="#000" font-family="Arial" font-size="12" text-anchor="middle"><tspan>80</tspan></text></g><g fill="none" color="#000" stroke="currentColor"><path stroke="#000" d="M564.7 392v-9m0-364.9v9"/><text transform="translate(564.7 413.9)" stroke="none" fill="#000" font-family="Arial" font-size="12" text-anchor="middle"><tspan>90</tspan></text></g><path stroke="#000" d="M62.2 18.1V392H615V18.1H62.2z" fill="none" color="#000"/><text transform="translate(512.5 431.9)" stroke="none" fill="#000" font-family="Arial" font-size="12" text-anchor="end" color="#000"><tspan>pages+cached+noexternal+nofonts+nosvg+noimg</tspan></text><path stroke="#9400D3" d="M520.8 428H563M62.2 383.1l5.6.7 5.6-.7L79 28.4 84.5 383l5.6.5 5.6-354.9 5.6 354.5 5.6 1.4 5.6-1.5 5.5.1h5.6l5.6.7 5.6-.3L140.4 28l5.6.8 5.5 132.3 5.6 221.9 5.6.6 5.6.7 5.6-.7h5.6l5.5-.1 5.6-.1 5.6.2 5.6.4 5.6-.4 5.6.4 5.5-.7 5.6.2 5.6.2 5.6-358.4 5.6 357.9 5.6.4 5.6-.5 5.5-176.6 5.6 176.8 5.6.6 5.6.1 5.6-.2h11.1l5.6-1.4 5.6-175.7 5.6 176.9 5.6-354.9 5.6 355.2 5.5-.6 5.6-.8 5.6 1.2 5.6.1 5.6-.4 5.6-177.2 5.5 177.4 5.6-.7 5.6.3L374.9 27l5.6 356.4 5.6.4 5.5-222.3 5.6 221.7 5.6.8 5.6-358.4 5.6 4.7 5.6 354 5.5-1.1 5.6.8 5.6-178.1 5.6 178.3 5.6-1.1 5.6 1.3 5.6-177.4 5.5 177.1 5.6.7 5.6-1.2 5.6.2 5.6-.4 5.6 1 5.5-1.2 5.6-352.9 5.6 353.6 5.6-1.3 5.6.8 5.6-353.3 5.5 353.4 5.6-.4h5.6l5.6.2 5.6-355.2 5.6.1 5.5 354.6 5.6-175.8 5.6 176.1 5.6.3 5.6.4 5.6.2 5.5-.9 5.6 1 5.6-.6L615 28.8" fill="none" color="#000"/><text transform="translate(512.5 449.9)" stroke="none" fill="#000" font-family="Arial" font-size="12" text-anchor="end" color="#000"><tspan>pages+cached+noexternal+nofonts+nosvg+noimg+nocss</tspan></text><path stroke="#009E73" d="M520.8 446H563M62.2 294.2l5.6-.7 5.6.7 5.6-2.1 5.5.2 5.6 2.1 5.6-1.2 5.6-.5 5.6.8 5.6-.3 5.5.7 5.6.7 5.6-4 5.6 2.9 5.6-.2 5.6.9 5.5-.6 5.6-4.1 5.6 4.2 5.6-1.1 5.6 2.5 5.6-1.2 5.5-1.6 5.6 2.4 5.6.4 5.6-2 5.6-.2 5.6-.4 5.5 1.6 5.6-.4 5.6 1 5.6-.5 5.6-2.5 5.6 2 5.6-1.4 5.5.9 5.6.6 5.6-1.4 5.6 1.6 5.6-1.3 5.6 1.2 5.5-.2 5.6 1.6 5.6-1.6 5.6-.4h5.6l5.6.3h5.5l5.6 1.7 5.6-2.4 5.6 1 5.6-.2 5.6.1 5.5.3 5.6-1.7 5.6 3.1 5.6-1.1 5.6-.1 5.6-.4 5.5-.7 5.6-1.1 5.6 2.3 5.6.5 5.6-.4 5.6-1.4 5.5 1.1 5.6-2 5.6 2.6 5.6-1.7 5.6 1.1 5.6.3 5.6-2.6 5.5 2.1 5.6.8 5.6-4.6 5.6 2.6 5.6 1.8 5.6-.6 5.5.3 5.6-2.4 5.6 2.1 5.6-1.1 5.6.8 5.6.3 5.5-1.2 5.6-.2 5.6 1.6 5.6-.4 5.6-1.2 5.6.9 5.5.3 5.6-.8 5.6 1 5.6 1 5.6-1.2 5.6.7 5.5-1.1 5.6-.6 5.6 2 5.6-1.7" fill="none" color="#000"/><text transform="translate(512.5 467.9)" stroke="none" fill="#000" font-family="Arial" font-size="12" text-anchor="end" color="#000"><tspan>score p10=2336</tspan></text><path stroke="#56B4E9" d="M520.8 464H563" fill="none" color="#000"/><g><text transform="translate(512.5 485.9)" stroke="none" fill="#000" font-family="Arial" font-size="12" text-anchor="end" color="#000"><tspan>score median=4000</tspan></text><path stroke="#E69F00" d="M520.8 482H563" fill="none" color="#000"/></g><g fill="none" color="#000" stroke="currentColor"><path stroke="#000" d="M62.2 18.1V392H615V18.1H62.2z"/></g></svg>

<?xml version="1.0" encoding="utf-8"  standalone="no"?>
<svg 
 width="640" height="500"
 viewBox="0 0 640 500"
 xmlns="http://www.w3.org/2000/svg"
 xmlns:xlink="http://www.w3.org/1999/xlink"
>

<title>Gnuplot</title>
<desc>Produced by GNUPLOT 5.4 patchlevel 0 </desc>

<g id="gnuplot_canvas">

<rect x="0" y="0" width="640" height="500" fill="#ffffff"/>
<defs>

	<circle id='gpDot' r='0.5' stroke-width='0.5' stroke='currentColor'/>
	<path id='gpPt0' stroke-width='0.222' stroke='currentColor' d='M-1,0 h2 M0,-1 v2'/>
	<path id='gpPt1' stroke-width='0.222' stroke='currentColor' d='M-1,-1 L1,1 M1,-1 L-1,1'/>
	<path id='gpPt2' stroke-width='0.222' stroke='currentColor' d='M-1,0 L1,0 M0,-1 L0,1 M-1,-1 L1,1 M-1,1 L1,-1'/>
	<rect id='gpPt3' stroke-width='0.222' stroke='currentColor' x='-1' y='-1' width='2' height='2'/>
	<rect id='gpPt4' stroke-width='0.222' stroke='currentColor' fill='currentColor' x='-1' y='-1' width='2' height='2'/>
	<circle id='gpPt5' stroke-width='0.222' stroke='currentColor' cx='0' cy='0' r='1'/>
	<use xlink:href='#gpPt5' id='gpPt6' fill='currentColor' stroke='none'/>
	<path id='gpPt7' stroke-width='0.222' stroke='currentColor' d='M0,-1.33 L-1.33,0.67 L1.33,0.67 z'/>
	<use xlink:href='#gpPt7' id='gpPt8' fill='currentColor' stroke='none'/>
	<use xlink:href='#gpPt7' id='gpPt9' stroke='currentColor' transform='rotate(180)'/>
	<use xlink:href='#gpPt9' id='gpPt10' fill='currentColor' stroke='none'/>
	<use xlink:href='#gpPt3' id='gpPt11' stroke='currentColor' transform='rotate(45)'/>
	<use xlink:href='#gpPt11' id='gpPt12' fill='currentColor' stroke='none'/>
	<path id='gpPt13' stroke-width='0.222' stroke='currentColor' d='M0,1.330 L1.265,0.411 L0.782,-1.067 L-0.782,-1.076 L-1.265,0.411 z'/>
	<use xlink:href='#gpPt13' id='gpPt14' fill='currentColor' stroke='none'/>
	<filter id='textbox' filterUnits='objectBoundingBox' x='0' y='0' height='1' width='1'>
	  <feFlood flood-color='#FFFFFF' flood-opacity='1' result='bgnd'/>
	  <feComposite in='SourceGraphic' in2='bgnd' operator='atop'/>
	</filter>
	<filter id='greybox' filterUnits='objectBoundingBox' x='0' y='0' height='1' width='1'>
	  <feFlood flood-color='lightgrey' flood-opacity='1' result='grey'/>
	  <feComposite in='SourceGraphic' in2='grey' operator='atop'/>
	</filter>
</defs>
<g fill="none" color="#FFFFFF" stroke="black" stroke-width="1.00" stroke-linecap="butt" stroke-linejoin="miter">
</g>
<g fill="none" color="black" stroke="currentColor" stroke-width="1.00" stroke-linecap="butt" stroke-linejoin="miter">
	<path stroke='black'  d='M62.2,389.5 L71.2,389.5 M615.0,389.5 L606.0,389.5  '/>	<g transform="translate(53.9,393.4)" stroke="none" fill="black" font-family="Arial" font-size="12.00"  text-anchor="end">
		<text><tspan font-family="Arial" > 1500</tspan></text>
	</g>
</g>
<g fill="none" color="black" stroke="currentColor" stroke-width="1.00" stroke-linecap="butt" stroke-linejoin="miter">
	<path stroke='black'  d='M62.2,331.1 L71.2,331.1 M615.0,331.1 L606.0,331.1  '/>	<g transform="translate(53.9,335.0)" stroke="none" fill="black" font-family="Arial" font-size="12.00"  text-anchor="end">
		<text><tspan font-family="Arial" > 1600</tspan></text>
	</g>
</g>
<g fill="none" color="black" stroke="currentColor" stroke-width="1.00" stroke-linecap="butt" stroke-linejoin="miter">
	<path stroke='black'  d='M62.2,272.6 L71.2,272.6 M615.0,272.6 L606.0,272.6  '/>	<g transform="translate(53.9,276.5)" stroke="none" fill="black" font-family="Arial" font-size="12.00"  text-anchor="end">
		<text><tspan font-family="Arial" > 1700</tspan></text>
	</g>
</g>
<g fill="none" color="black" stroke="currentColor" stroke-width="1.00" stroke-linecap="butt" stroke-linejoin="miter">
	<path stroke='black'  d='M62.2,214.2 L71.2,214.2 M615.0,214.2 L606.0,214.2  '/>	<g transform="translate(53.9,218.1)" stroke="none" fill="black" font-family="Arial" font-size="12.00"  text-anchor="end">
		<text><tspan font-family="Arial" > 1800</tspan></text>
	</g>
</g>
<g fill="none" color="black" stroke="currentColor" stroke-width="1.00" stroke-linecap="butt" stroke-linejoin="miter">
	<path stroke='black'  d='M62.2,155.8 L71.2,155.8 M615.0,155.8 L606.0,155.8  '/>	<g transform="translate(53.9,159.7)" stroke="none" fill="black" font-family="Arial" font-size="12.00"  text-anchor="end">
		<text><tspan font-family="Arial" > 1900</tspan></text>
	</g>
</g>
<g fill="none" color="black" stroke="currentColor" stroke-width="1.00" stroke-linecap="butt" stroke-linejoin="miter">
	<path stroke='black'  d='M62.2,97.4 L71.2,97.4 M615.0,97.4 L606.0,97.4  '/>	<g transform="translate(53.9,101.3)" stroke="none" fill="black" font-family="Arial" font-size="12.00"  text-anchor="end">
		<text><tspan font-family="Arial" > 2000</tspan></text>
	</g>
</g>
<g fill="none" color="black" stroke="currentColor" stroke-width="1.00" stroke-linecap="butt" stroke-linejoin="miter">
	<path stroke='black'  d='M62.2,39.0 L71.2,39.0 M615.0,39.0 L606.0,39.0  '/>	<g transform="translate(53.9,42.9)" stroke="none" fill="black" font-family="Arial" font-size="12.00"  text-anchor="end">
		<text><tspan font-family="Arial" > 2100</tspan></text>
	</g>
</g>
<g fill="none" color="black" stroke="currentColor" stroke-width="1.00" stroke-linecap="butt" stroke-linejoin="miter">
	<path stroke='black'  d='M62.2,392.0 L62.2,383.0 M62.2,18.1 L62.2,27.1  '/>	<g transform="translate(62.2,413.9)" stroke="none" fill="black" font-family="Arial" font-size="12.00"  text-anchor="middle">
		<text><tspan font-family="Arial" > 0</tspan></text>
	</g>
</g>
<g fill="none" color="black" stroke="currentColor" stroke-width="1.00" stroke-linecap="butt" stroke-linejoin="miter">
	<path stroke='black'  d='M118.0,392.0 L118.0,383.0 M118.0,18.1 L118.0,27.1  '/>	<g transform="translate(118.0,413.9)" stroke="none" fill="black" font-family="Arial" font-size="12.00"  text-anchor="middle">
		<text><tspan font-family="Arial" > 10</tspan></text>
	</g>
</g>
<g fill="none" color="black" stroke="currentColor" stroke-width="1.00" stroke-linecap="butt" stroke-linejoin="miter">
	<path stroke='black'  d='M173.9,392.0 L173.9,383.0 M173.9,18.1 L173.9,27.1  '/>	<g transform="translate(173.9,413.9)" stroke="none" fill="black" font-family="Arial" font-size="12.00"  text-anchor="middle">
		<text><tspan font-family="Arial" > 20</tspan></text>
	</g>
</g>
<g fill="none" color="black" stroke="currentColor" stroke-width="1.00" stroke-linecap="butt" stroke-linejoin="miter">
	<path stroke='black'  d='M229.7,392.0 L229.7,383.0 M229.7,18.1 L229.7,27.1  '/>	<g transform="translate(229.7,413.9)" stroke="none" fill="black" font-family="Arial" font-size="12.00"  text-anchor="middle">
		<text><tspan font-family="Arial" > 30</tspan></text>
	</g>
</g>
<g fill="none" color="black" stroke="currentColor" stroke-width="1.00" stroke-linecap="butt" stroke-linejoin="miter">
	<path stroke='black'  d='M285.6,392.0 L285.6,383.0 M285.6,18.1 L285.6,27.1  '/>	<g transform="translate(285.6,413.9)" stroke="none" fill="black" font-family="Arial" font-size="12.00"  text-anchor="middle">
		<text><tspan font-family="Arial" > 40</tspan></text>
	</g>
</g>
<g fill="none" color="black" stroke="currentColor" stroke-width="1.00" stroke-linecap="butt" stroke-linejoin="miter">
	<path stroke='black'  d='M341.4,392.0 L341.4,383.0 M341.4,18.1 L341.4,27.1  '/>	<g transform="translate(341.4,413.9)" stroke="none" fill="black" font-family="Arial" font-size="12.00"  text-anchor="middle">
		<text><tspan font-family="Arial" > 50</tspan></text>
	</g>
</g>
<g fill="none" color="black" stroke="currentColor" stroke-width="1.00" stroke-linecap="butt" stroke-linejoin="miter">
	<path stroke='black'  d='M397.2,392.0 L397.2,383.0 M397.2,18.1 L397.2,27.1  '/>	<g transform="translate(397.2,413.9)" stroke="none" fill="black" font-family="Arial" font-size="12.00"  text-anchor="middle">
		<text><tspan font-family="Arial" > 60</tspan></text>
	</g>
</g>
<g fill="none" color="black" stroke="currentColor" stroke-width="1.00" stroke-linecap="butt" stroke-linejoin="miter">
	<path stroke='black'  d='M453.1,392.0 L453.1,383.0 M453.1,18.1 L453.1,27.1  '/>	<g transform="translate(453.1,413.9)" stroke="none" fill="black" font-family="Arial" font-size="12.00"  text-anchor="middle">
		<text><tspan font-family="Arial" > 70</tspan></text>
	</g>
</g>
<g fill="none" color="black" stroke="currentColor" stroke-width="1.00" stroke-linecap="butt" stroke-linejoin="miter">
	<path stroke='black'  d='M508.9,392.0 L508.9,383.0 M508.9,18.1 L508.9,27.1  '/>	<g transform="translate(508.9,413.9)" stroke="none" fill="black" font-family="Arial" font-size="12.00"  text-anchor="middle">
		<text><tspan font-family="Arial" > 80</tspan></text>
	</g>
</g>
<g fill="none" color="black" stroke="currentColor" stroke-width="1.00" stroke-linecap="butt" stroke-linejoin="miter">
	<path stroke='black'  d='M564.7,392.0 L564.7,383.0 M564.7,18.1 L564.7,27.1  '/>	<g transform="translate(564.7,413.9)" stroke="none" fill="black" font-family="Arial" font-size="12.00"  text-anchor="middle">
		<text><tspan font-family="Arial" > 90</tspan></text>
	</g>
</g>
<g fill="none" color="black" stroke="currentColor" stroke-width="1.00" stroke-linecap="butt" stroke-linejoin="miter">
</g>
<g fill="none" color="black" stroke="currentColor" stroke-width="1.00" stroke-linecap="butt" stroke-linejoin="miter">
	<path stroke='black'  d='M62.2,18.1 L62.2,392.0 L615.0,392.0 L615.0,18.1 L62.2,18.1 Z  '/></g>
<g fill="none" color="black" stroke="currentColor" stroke-width="1.00" stroke-linecap="butt" stroke-linejoin="miter">
</g>
	<g id="gnuplot_plot_1" ><title>pages+cached+noexternal+nofonts+nosvg+noimg</title>
<g fill="none" color="black" stroke="currentColor" stroke-width="1.00" stroke-linecap="butt" stroke-linejoin="miter">
	<g transform="translate(512.5,431.9)" stroke="none" fill="black" font-family="Arial" font-size="12.00"  text-anchor="end">
		<text><tspan font-family="Arial" >pages+cached+noexternal+nofonts+nosvg+noimg</tspan></text>
	</g>
</g>
<g fill="none" color="black" stroke="currentColor" stroke-width="1.00" stroke-linecap="butt" stroke-linejoin="miter">
	<path stroke='rgb(148,   0, 211)'  d='M520.8,428.0 L563.0,428.0 M62.2,383.1 L67.8,383.8 L73.4,383.1 L79.0,28.4 L84.5,383.0 L90.1,383.5
		L95.7,28.6 L101.3,383.1 L106.9,384.5 L112.5,383.0 L118.0,383.1 L123.6,383.1 L129.2,383.8 L134.8,383.5
		L140.4,28.0 L146.0,28.8 L151.5,161.1 L157.1,383.0 L162.7,383.6 L168.3,384.3 L173.9,383.6 L179.5,383.6
		L185.0,383.5 L190.6,383.4 L196.2,383.6 L201.8,384.0 L207.4,383.6 L213.0,384.0 L218.5,383.3 L224.1,383.5
		L229.7,383.7 L235.3,25.3 L240.9,383.2 L246.5,383.6 L252.1,383.1 L257.6,206.5 L263.2,383.3 L268.8,383.9
		L274.4,384.0 L280.0,383.8 L285.6,383.8 L291.1,383.8 L296.7,382.4 L302.3,206.7 L307.9,383.6 L313.5,28.7
		L319.1,383.9 L324.6,383.3 L330.2,382.5 L335.8,383.7 L341.4,383.8 L347.0,383.4 L352.6,206.2 L358.1,383.6
		L363.7,382.9 L369.3,383.2 L374.9,27.0 L380.5,383.4 L386.1,383.8 L391.6,161.5 L397.2,383.2 L402.8,384.0
		L408.4,25.6 L414.0,30.3 L419.6,384.3 L425.1,383.2 L430.7,384.0 L436.3,205.9 L441.9,384.2 L447.5,383.1
		L453.1,384.4 L458.7,207.0 L464.2,384.1 L469.8,384.8 L475.4,383.6 L481.0,383.8 L486.6,383.4 L492.2,384.4
		L497.7,383.2 L503.3,30.3 L508.9,383.9 L514.5,382.6 L520.1,383.4 L525.7,30.1 L531.2,383.5 L536.8,383.1
		L542.4,383.1 L548.0,383.3 L553.6,28.1 L559.2,28.2 L564.7,382.8 L570.3,207.0 L575.9,383.1 L581.5,383.4
		L587.1,383.8 L592.7,384.0 L598.2,383.1 L603.8,384.1 L609.4,383.5 L615.0,28.8  '/></g>
	</g>
	<g id="gnuplot_plot_2" ><title>pages+cached+noexternal+nofonts+nosvg+noimg+nocss</title>
<g fill="none" color="black" stroke="currentColor" stroke-width="1.00" stroke-linecap="butt" stroke-linejoin="miter">
	<g transform="translate(512.5,449.9)" stroke="none" fill="black" font-family="Arial" font-size="12.00"  text-anchor="end">
		<text><tspan font-family="Arial" >pages+cached+noexternal+nofonts+nosvg+noimg+nocss</tspan></text>
	</g>
</g>
<g fill="none" color="black" stroke="currentColor" stroke-width="1.00" stroke-linecap="butt" stroke-linejoin="miter">
	<path stroke='rgb(  0, 158, 115)'  d='M520.8,446.0 L563.0,446.0 M62.2,294.2 L67.8,293.5 L73.4,294.2 L79.0,292.1 L84.5,292.3 L90.1,294.4
		L95.7,293.2 L101.3,292.7 L106.9,293.5 L112.5,293.2 L118.0,293.9 L123.6,294.6 L129.2,290.6 L134.8,293.5
		L140.4,293.3 L146.0,294.2 L151.5,293.6 L157.1,289.5 L162.7,293.7 L168.3,292.6 L173.9,295.1 L179.5,293.9
		L185.0,292.3 L190.6,294.7 L196.2,295.1 L201.8,293.1 L207.4,292.9 L213.0,292.5 L218.5,294.1 L224.1,293.7
		L229.7,294.7 L235.3,294.2 L240.9,291.7 L246.5,293.7 L252.1,292.3 L257.6,293.2 L263.2,293.8 L268.8,292.4
		L274.4,294.0 L280.0,292.7 L285.6,293.9 L291.1,293.7 L296.7,295.3 L302.3,293.7 L307.9,293.3 L313.5,293.3
		L319.1,293.6 L324.6,293.6 L330.2,295.3 L335.8,292.9 L341.4,293.9 L347.0,293.7 L352.6,293.8 L358.1,294.1
		L363.7,292.4 L369.3,295.5 L374.9,294.4 L380.5,294.3 L386.1,293.9 L391.6,293.2 L397.2,292.1 L402.8,294.4
		L408.4,294.9 L414.0,294.5 L419.6,293.1 L425.1,294.2 L430.7,292.2 L436.3,294.8 L441.9,293.1 L447.5,294.2
		L453.1,294.5 L458.7,291.9 L464.2,294.0 L469.8,294.8 L475.4,290.2 L481.0,292.8 L486.6,294.6 L492.2,294.0
		L497.7,294.3 L503.3,291.9 L508.9,294.0 L514.5,292.9 L520.1,293.7 L525.7,294.0 L531.2,292.8 L536.8,292.6
		L542.4,294.2 L548.0,293.8 L553.6,292.6 L559.2,293.5 L564.7,293.8 L570.3,293.0 L575.9,294.0 L581.5,295.0
		L587.1,293.8 L592.7,294.5 L598.2,293.4 L603.8,292.8 L609.4,294.8 L615.0,293.1  '/></g>
	</g>
	<g id="gnuplot_plot_3" ><title>score p10=2336</title>
<g fill="none" color="black" stroke="currentColor" stroke-width="1.00" stroke-linecap="butt" stroke-linejoin="miter">
	<g transform="translate(512.5,467.9)" stroke="none" fill="black" font-family="Arial" font-size="12.00"  text-anchor="end">
		<text><tspan font-family="Arial" >score p10=2336</tspan></text>
	</g>
</g>
<g fill="none" color="black" stroke="currentColor" stroke-width="1.00" stroke-linecap="butt" stroke-linejoin="miter">
	<path stroke='rgb( 86, 180, 233)'  d='M520.8,464.0 L563.0,464.0  '/></g>
	</g>
	<g id="gnuplot_plot_4" ><title>score median=4000</title>
<g fill="none" color="black" stroke="currentColor" stroke-width="1.00" stroke-linecap="butt" stroke-linejoin="miter">
	<g transform="translate(512.5,485.9)" stroke="none" fill="black" font-family="Arial" font-size="12.00"  text-anchor="end">
		<text><tspan font-family="Arial" >score median=4000</tspan></text>
	</g>
</g>
<g fill="none" color="black" stroke="currentColor" stroke-width="1.00" stroke-linecap="butt" stroke-linejoin="miter">
	<path stroke='rgb(230, 159,   0)'  d='M520.8,482.0 L563.0,482.0  '/></g>
	</g>
<g fill="none" color="#FFFFFF" stroke="rgb(230, 159,   0)" stroke-width="2.00" stroke-linecap="butt" stroke-linejoin="miter">
</g>
<g fill="none" color="black" stroke="currentColor" stroke-width="2.00" stroke-linecap="butt" stroke-linejoin="miter">
</g>
<g fill="none" color="black" stroke="black" stroke-width="1.00" stroke-linecap="butt" stroke-linejoin="miter">
</g>
<g fill="none" color="black" stroke="currentColor" stroke-width="1.00" stroke-linecap="butt" stroke-linejoin="miter">
	<path stroke='black'  d='M62.2,18.1 L62.2,392.0 L615.0,392.0 L615.0,18.1 L62.2,18.1 Z  '/></g>
<g fill="none" color="black" stroke="currentColor" stroke-width="1.00" stroke-linecap="butt" stroke-linejoin="miter">
</g>
</g>
</svg>
